svgs/regular/face-astonished.svg

<svg xmlns="http://www.w3.org/2000/svg" viewBox="0 0 512 512"><!--! Font Awesome Pro 6.3.0 by @fontawesome - https://fontawesome.com License - https://fontawesome.com/license (Commercial License) Copyright 2023 Fonticons, Inc. --><path d="M464 256A208 208 0 1 0 48 256a208 208 0 1 0 416 0zM0 256a256 256 0 1 1 512 0A256 256 0 1 1 0 256zm256 48c26.5 0 48 21.5 48 48v32c0 26.5-21.5 48-48 48s-48-21.5-48-48V352c0-26.5 21.5-48 48-48zM144.4 224a32 32 0 1 1 64 0 32 32 0 1 1 -64 0zm192-32a32 32 0 1 1 0 64 32 32 0 1 1 0-64zM192 144c-4.4 0-8.8 .3-13 .9c-21.2 2.8-40.6 12.4-56.1 26.8c-6.5 6-16.6 5.7-22.6-.8s-5.7-16.6 .8-22.6c20.1-18.7 45.5-31.5 73.7-35.2c5.6-.7 11.4-1.1 17.2-1.1c8.8 0 16 7.2 16 16s-7.2 16-16 16zm141 .9c-4.3-.6-8.6-.9-13-.9c-8.8 0-16-7.2-16-16s7.2-16 16-16c5.8 0 11.6 .4 17.2 1.1c28.2 3.7 53.7 16.4 73.7 35.2c6.5 6 6.8 16.2 .8 22.6s-16.2 6.8-22.6 .8c-15.5-14.5-34.8-24-56.1-26.8z"/></svg>

<svg xmlns="http://www.w3.org/2000/svg" viewBox="0 0 512 512"><!--! Font Awesome Pro 6.2.0 by @fontawesome - https://fontawesome.com License - https://fontawesome.com/license (Commercial License) Copyright 2022 Fonticons, Inc. --><path d="M304 352V384C304 410.5 282.5 432 256 432C229.5 432 208 410.5 208 384V352C208 325.5 229.5 304 256 304C282.5 304 304 325.5 304 352zM208.4 224C208.4 241.7 194 256 176.4 256C158.7 256 144.4 241.7 144.4 224C144.4 206.3 158.7 192 176.4 192C194 192 208.4 206.3 208.4 224zM304.4 224C304.4 206.3 318.7 192 336.4 192C354 192 368.4 206.3 368.4 224C368.4 241.7 354 256 336.4 256C318.7 256 304.4 241.7 304.4 224zM192 144C187.6 144 183.2 144.3 178.1 144.9C157.8 147.7 138.4 157.2 122.9 171.7C116.5 177.7 106.3 177.4 100.3 170.9C94.28 164.5 94.62 154.3 101.1 148.3C121.1 129.6 146.6 116.9 174.8 113.1C180.4 112.4 186.2 112 192 112C200.8 112 208 119.2 208 128C208 136.8 200.8 144 192 144zM333 144.9C328.8 144.3 324.4 144 320 144C311.2 144 304 136.8 304 128C304 119.2 311.2 112 320 112C325.8 112 331.6 112.4 337.2 113.1C365.4 116.9 390.9 129.6 410.9 148.3C417.4 154.3 417.7 164.5 411.7 170.9C405.7 177.4 395.5 177.7 389.1 171.7C373.6 157.2 354.2 147.7 333 144.9zM512 256C512 397.4 397.4 512 256 512C114.6 512 0 397.4 0 256C0 114.6 114.6 0 256 0C397.4 0 512 114.6 512 256zM256 48C141.1 48 48 141.1 48 256C48 370.9 141.1 464 256 464C370.9 464 464 370.9 464 256C464 141.1 370.9 48 256 48z"/></svg>
